X:1
T:Book1_P2_No.5
T:Book1_P2_No.5
L:1/8
M:4/4
K:C
V:1 bass nm="大提琴" snm="Vc."
V:1
 z8 |[Q:1/4=60] C,B,,A,,G,, A,,G,,B,,G,, | C,B,,A,,G,, B,,G,,B,,G,, | C,D,E,F, G,B,^F,A, | %4
 G,A,^F,A, G,=F,A,,B,, | C,B,,A,,G,, A,,G,,C,G,, | C,B,,A,,G,, A,,G,,B,,G,, | C,D,E,^F, G,A,B,C | %8
 DCE,^F, G,2 z2 | G,=F,E,D, A,G,F,E, | F,E,D,C, G,F,E,D, | E,D,C,B,, A,,G,,B,,G,, | %12
 A,,G,,B,,G,, A,,G,,G,G,, | F,,E,,D,,C,, D,,C,,E,,C,, | F,,E,,D,,C,, D,,C,,E,,C,, | %15
 F,,G,,A,,B,, C,D,E,F, | G,A,F,G, E,D,C,B,, | A,,B,,C,D, E,F,G,A, | B,CDB, C2 z2 |] %19

